assets/images/whatsappmob.svg

<svg width="12" height="12" viewBox="0 0 12 12" fill="none" xmlns="http://www.w3.org/2000/svg">
<path fill-rule="evenodd" clip-rule="evenodd" d="M0.050509 5.94659C0.0530181 0.703719 6.41547 -1.99175 10.26 1.72468L10.2525 1.74421C11.38 2.86717 12 4.36164 12 5.94959C11.998 10.474 7.11998 13.309 3.16751 11.174L0 12L0.848018 8.91905C0.324982 8.01656 0.050509 6.99461 0.050509 5.94659ZM3.495 10.185C6.80847 12.133 10.998 9.74955 11.001 5.93312C11.001 4.61314 10.484 3.36767 9.54649 2.43818C8.60847 1.50067 7.36298 0.983204 6.036 0.983204C2.13 0.983204 -0.239018 5.27313 1.82302 8.55557L1.94247 8.74304L1.44 10.5655L3.315 10.078L3.495 10.185ZM8.74909 7.19124L8.75356 7.15377C8.76966 7.16097 8.78509 7.1679 8.79993 7.1745C8.92385 7.22964 9.00551 7.26602 9.03856 7.32624C9.07609 7.39377 9.07609 7.68624 8.94856 8.03876C8.82409 8.39122 8.22758 8.70622 7.94056 8.75176C7.68305 8.78874 7.35758 8.80473 7.00058 8.69122C5.67856 8.23724 4.95556 7.91025 3.59858 6.13428C2.90809 5.16131 2.70458 4.24633 3.51158 3.35933C3.69709 3.16635 3.90758 3.16231 4.19558 3.18735C4.20464 3.18735 4.21402 3.18697 4.22367 3.18664C4.31231 3.18326 4.42336 3.179 4.53158 3.44234C4.5864 3.5708 4.67455 3.78423 4.75942 3.98975C4.86818 4.25299 4.97149 4.50318 4.99255 4.54529C5.02958 4.6198 5.05506 4.70232 5.00509 4.80732C4.88744 5.02986 4.76498 5.16502 4.67356 5.26588C4.54816 5.4042 4.48135 5.47795 4.56605 5.62429C4.65409 5.77429 4.95207 6.26181 5.39607 6.65927C5.87313 7.08614 6.28822 7.26602 6.49882 7.35733C6.53984 7.37511 6.57311 7.38951 6.59755 7.40179C6.74607 7.46926 6.83307 7.46179 6.92056 7.36426C7.00707 7.26526 7.29409 6.93079 7.39255 6.78325C7.52716 6.58138 7.63751 6.63647 8.58518 7.10948C8.63722 7.1355 8.69182 7.16272 8.74909 7.19124Z" fill="white"/>
</svg>

<svg xmlns="http://www.w3.org/2000/svg" width="12" height="12" fill="none"><path fill="#fff" fill-rule="evenodd" d="M.05 5.947C.054.704 6.416-1.992 10.26 1.725l-.008.02A5.9 5.9 0 0 1 12 5.95c-.002 4.524-4.88 7.359-8.832 5.224L0 12l.848-3.08a5.9 5.9 0 0 1-.797-2.973m3.445 4.238c3.313 1.948 7.503-.435 7.506-4.252 0-1.32-.517-2.565-1.455-3.495A4.93 4.93 0 0 0 6.036.983c-3.906 0-6.275 4.29-4.213 7.573l.12.187-.503 1.822 1.875-.487zm5.254-2.994.005-.037.046.02c.124.056.206.092.239.152.037.068.037.36-.09.713-.125.352-.721.667-1.008.713a2.1 2.1 0 0 1-.94-.06c-1.322-.455-2.045-.782-3.402-2.558-.69-.973-.894-1.888-.087-2.775.185-.193.396-.197.684-.172h.028c.088-.004.2-.008.308.255.054.129.143.342.227.548.11.263.212.513.234.555.037.075.062.157.012.262-.118.223-.24.358-.331.459-.126.138-.193.212-.108.358.088.15.386.638.83 1.035.477.427.892.607 1.103.698l.099.045c.148.067.235.06.323-.038.086-.099.373-.433.472-.58.134-.203.245-.148 1.192.325z" clip-rule="evenodd"/></svg>
